src/components/atoms/Icon/icons/link-small.svg

<svg width="16px" height="16px" viewBox="0 0 16 16" version="1.1" xmlns="http://www.w3.org/2000/svg" xmlns:xlink="http://www.w3.org/1999/xlink">
    <defs>
        <path d="M4.64457332,11.3554267 C3.93620547,10.6470588 3.93620547,9.49544325 4.64457332,8.78707539 L6.30157415,7.13007457 L5.51449876,6.34299917 L3.85749793,8 C2.71416736,9.14333057 2.71416736,10.9991715 3.85749793,12.1425021 C5.0008285,13.2858326 6.85666943,13.2858326 8,12.1425021 L9.65700083,10.4855012 L8.86992543,9.69842585 L7.21292461,11.3554267 C6.50455675,12.0637945 5.35294118,12.0637945 4.64457332,11.3554267 Z M6.75724938,10.071251 L10.071251,6.75724938 L9.24275062,5.92874896 L5.92874896,9.24275062 L6.75724938,10.071251 Z M8,3.85749793 L6.34299917,5.51449876 L7.13007457,6.30157415 L8.78707539,4.64457332 C9.49544325,3.93620547 10.6470588,3.93620547 11.3554267,4.64457332 C12.0637945,5.35294118 12.0637945,6.50455675 11.3554267,7.21292461 L9.69842585,8.86992543 L10.4855012,9.65700083 L12.1425021,8 C13.2858326,6.85666943 13.2858326,5.0008285 12.1425021,3.85749793 C10.9991715,2.71416736 9.14333057,2.71416736 8,3.85749793 Z" id="path-1"></path>
    </defs>
    <g id="Icon-/-Link-Copy" stroke="none" stroke-width="1" fill="none" fill-rule="evenodd">
        <mask id="mask-2" fill="white">
            <use xlink:href="#path-1"></use>
        </mask>
        <use id="Shape" fill="#000000" fill-rule="nonzero" xlink:href="#path-1"></use>
        <g id="Color-/-Slate-/-Base" mask="url(#mask-2)" fill="#2A333F" fill-rule="nonzero">
            <rect id="Rectangle" x="0" y="0" width="16" height="16"></rect>
        </g>
    </g>
</svg>

<svg width="16" height="16" xmlns="http://www.w3.org/2000/svg" xmlns:xlink="http://www.w3.org/1999/xlink"><defs><path d="M4.645 11.355a1.818 1.818 0 0 1 0-2.568L6.302 7.13l-.788-.787L3.857 8A2.93 2.93 0 0 0 8 12.143l1.657-1.657-.787-.788-1.657 1.657a1.818 1.818 0 0 1-2.568 0zm2.112-1.284l3.314-3.314-.828-.828-3.314 3.314.828.828zM8 3.857L6.343 5.514l.787.788 1.657-1.657a1.818 1.818 0 0 1 2.568 0c.709.708.709 1.86 0 2.568L9.698 8.87l.788.787L12.143 8A2.93 2.93 0 0 0 8 3.857z" id="link-small-a"/></defs><g fill="none" fill-rule="evenodd"><mask id="link-small-b" fill="#fff"><use xlink:href="#link-small-a"/></mask><use fill="#000" fill-rule="nonzero" xlink:href="#link-small-a"/><g mask="url(#link-small-b)" fill="#2A333F" fill-rule="nonzero"><path d="M0 0h16v16H0z"/></g></g></svg>
